X:7121
T:the New Dresser
O:england
R:Slow air
N:1988
N:Slowish
M:4/4
C:Andy Hornby
A:Lancaster
K:D
A de |f3 f/2g/2 fedA | B4-B2AG | F2A2defg |e2-e3A de | \
f3 f/2g/2 fedA | GFGA B3 A/2G/2 | FAdfe2dc |d2-d3:: \
A Bc |e3 e/2f/2 ecBA |Affg f3 e/2d/2 | \
ceac Be^gb | a4-a3 a/2=g/2 | \
f3 f/2g/2 fedA |GFGA B3 A/2G/2 | FAdf e2 dc | d2-d3:|
W:Copyright (C) Andy Hornby
